X: 1
T: Pretty Peg
P: piffero primo a0708S
O: Robt Petrie Coll, 1805, mod
%R: reel
F: http://ancients.sudburymuster.org/mus/sng/pdf/prettypegC0.pdf
Z: 2020 John Chambers <jc:trillian.mit.edu>
M: 2/4
L: 1/16
K: D
(3ABc |:\
d2fd AFDF | d2fd egfe |\
d2fd AFDF | GEFD CEEA :|\
FDAD BDAD | GDFD CEEG |
FDAD BDAD | GFED A,DDA |\
FDdD cDBD | ADGD CEEG | FAdf ecdB |\
[1 AFGE "^DC al Fine"D2 :|[2 AFGE FD"^Fine"D y |]
